X: 50
T:Barrowburn, the
M:4/4
L:1/8
S:ABAB
R:Reel
O:A. Harper
K:D
D2 DE FAAd|B2 BA BcdB|A2 AB d2 de|fedB AFEF|!
D2 DE FAAd|B2 BA Bcde|f2 af egfe|dBAB dAcd|!
e2 ef ecBA|f2 fg fdBA|g2 ga gecA|a2 ag f2 ef|!
g2 ga gecA|a2 ag f2 ef|g2 ag f2 ed|BAAB d2 z2:||
% <A name="D1X051">
